X:1
T:Title
%%score { ( 1 3 ) | ( 2 4 ) }
L:1/8
Q:1/4=84
M:6/8
K:D
V:1 treble nm="Grand Piano"
V:3 treble 
V:2 bass 
V:4 bass 
V:1
 [A,DF]2 [A,EG] [DFA]2 [DGB] | F3- [Fd]3 | [A,DF]2 [A,EG] [DFA]2 [DGB] | F3- [Fd]3 | %4
w: T.~J.~Cook * * *||||
 [DGB]2 [DAc] [DBd]2 [DGB] | [DFA]2 [DGB] [DFA]2 [A,DF] | [DGB]2 [DAc] [DBd]2 [DGB] | %7
w: |||
 [DFA]2 [DGB] [DFA]2 [A,DF] | [A,CE]2 [G,CE] [F,B,D]2[K:treble] [A,CE] | D3- [DB]3 | %10
w: |||
 [A,DA]2 [A,DF] [A,DF]2[K:bass] [G,CE] | [F,D]6 |] %12
w: ||
V:2
 D,2 D, D,2 D, | z3 A,3 | D,2 D, D,2 D, | z3 A,3 | G,2 G, G,2 G, | D,2 D, D,2 D, | G,2 G, G,2 G, | %7
 D,2 D, D,2 D, | A,,2 A,, B,,2 A,, | D,3 G,3 | F,2 D, A,,2 A,, | D,6 |] %12
V:3
 x6 | [DA]3 z3 | x6 | [DA]3 z3 | x6 | x6 | x6 | x6 | x5[K:treble] x | [A,F]3 z3 | x5[K:bass] x | %11
 x6 |] %12
V:4
 x6 | D,6 | x6 | D,6 | x6 | x6 | x6 | x6 | x6 | x6 | x6 | x6 |] %12

